build/img/nо-logo-small.svg

<svg width="24" height="27" viewBox="0 0 24 27" fill="none" xmlns="http://www.w3.org/2000/svg">
<rect width="24" height="27" fill="black" fill-opacity="0"/>
<path d="M11.8045 26.9291C11.5762 26.8459 11.3365 26.7558 11.072 26.6541C10.7818 26.5407 10.5275 26.4385 10.2915 26.3408C9.9666 26.2055 9.68597 26.0841 9.43245 25.9691C9.19316 25.863 8.9477 25.7498 8.68632 25.6248C8.40398 25.4888 8.12846 25.3513 7.86556 25.2153C7.61878 25.0869 7.37853 24.9574 7.15033 24.8298C6.88126 24.6791 6.61893 24.526 6.37025 24.3748C6.12375 24.2252 5.9019 24.0848 5.69256 23.9459C5.4288 23.772 5.18837 23.6063 4.95884 23.4403C4.75377 23.2931 4.54643 23.1367 4.32657 22.9634C4.08727 22.7749 3.85727 22.584 3.64338 22.396C3.43907 22.2176 3.24272 22.0366 3.06116 21.8595C2.84585 21.6518 2.63652 21.4364 2.44159 21.2214C2.25985 21.0217 2.08492 20.8173 1.92233 20.6148C1.72977 20.3742 1.54793 20.1281 1.38135 19.8829C1.22767 19.6576 1.08432 19.4278 0.94353 19.1817C0.783873 18.8999 0.639196 18.6101 0.512438 18.3185C0.384636 18.0226 0.279399 17.7348 0.198907 17.4617C0.0170655 16.8422 0.00142211 16.4568 0.000189602 16.415L0 5.11556C0 4.47272 0.331639 3.52055 0.94609 3.022C1.90849 2.24367 3.17389 1.59921 4.70779 1.10572C5.18316 0.952641 5.69446 0.811796 6.22728 0.687014C6.7126 0.57256 7.22968 0.469101 7.76355 0.379603C8.17758 0.310471 8.60658 0.249467 9.03881 0.198025C9.47749 0.144861 9.92129 0.10212 10.3944 0.0675062C10.7792 0.0393945 11.1675 0.019028 11.5488 0.0069801C11.7763 0.000573703 11.9243 0 11.9782 0H12.0086C12.0825 0 12.3567 0.00143425 12.7816 0.0196973C13.1149 0.0334662 13.4623 0.054789 13.8133 0.0829963C14.1879 0.113212 14.5635 0.150694 14.9297 0.1942C15.2603 0.233021 15.5853 0.277101 15.8949 0.325005C16.2487 0.379029 16.6018 0.440703 16.9432 0.507826C17.2709 0.57256 17.5669 0.637102 17.8486 0.705182C18.1729 0.78158 18.5035 0.868784 18.828 0.963446C19.1065 1.04443 19.3899 1.13489 19.6697 1.23223C19.9844 1.34152 20.288 1.45798 20.5719 1.57865C20.6281 1.60131 20.6841 1.62522 20.739 1.65142L20.8062 1.68335C21.2749 1.8853 21.7312 2.12415 22.1639 2.39389C22.4057 2.54296 22.6364 2.70054 22.8471 2.8607C22.9144 2.9108 22.9851 2.96626 23.0535 3.02181C23.2501 3.18063 23.4267 3.39453 23.5778 3.6571C23.7444 3.94127 23.8747 4.28005 23.9425 4.60735C23.9801 4.77793 24 4.95148 24 5.11556L23.9997 16.4144C23.9981 16.4732 23.9751 17.0138 23.6688 17.8617C23.3309 18.7976 22.7879 19.7331 22.055 20.6425C21.5053 21.3235 20.8466 21.9882 20.0968 22.6184C19.1376 23.4238 18.0112 24.1862 16.7486 24.8846C15.9964 25.3 15.1903 25.6966 14.3524 26.0638C13.7687 26.3205 13.155 26.5696 12.5291 26.8041C12.418 26.8457 12.3061 26.887 12.1934 26.9285L11.9992 27L11.8045 26.9291Z" fill="#C4C4C4"/>
<path d="M23 5.39833V16.3246C23 16.3246 22.9872 16.7913 22.7144 17.5515C22.4772 18.2126 22.0439 19.0941 21.2511 20.084C20.7839 20.6664 20.1909 21.2868 19.441 21.9212C18.6071 22.6257 17.5771 23.348 16.3062 24.0555C15.6247 24.4342 14.8729 24.8101 14.0455 25.175C13.5035 25.4148 12.9278 25.6509 12.3184 25.8806C12.2126 25.9204 12.1058 25.9601 11.9982 26C11.761 25.913 11.5292 25.8249 11.3021 25.737C11.0503 25.638 10.8039 25.5388 10.564 25.4388C10.2857 25.3221 10.0157 25.2054 9.75384 25.086C9.51115 24.9777 9.27486 24.8675 9.04587 24.7573C8.77855 24.6276 8.52036 24.4979 8.27129 24.3684C8.03956 24.2471 7.81604 24.1258 7.59891 24.0035C7.34436 23.86 7.09986 23.7165 6.86539 23.5731C6.64552 23.4388 6.43386 23.3045 6.23132 23.1694C5.99137 23.0101 5.76238 22.8518 5.54342 22.6925C5.33723 22.5435 5.14108 22.3934 4.95314 22.2443C4.72871 22.0665 4.51704 21.8897 4.31816 21.7138C4.12748 21.5461 3.94775 21.3795 3.77897 21.2137C3.57278 21.0137 3.3821 20.8156 3.20602 20.6202C3.03359 20.4295 2.87484 20.2424 2.72796 20.0582C2.54458 19.8277 2.38036 19.6027 2.23347 19.3851C2.08294 19.1629 1.95156 18.948 1.83478 18.7425C1.67786 18.4637 1.55105 18.2017 1.44704 17.961C1.32388 17.674 1.23356 17.4175 1.16878 17.1962C1.00912 16.6487 1 16.3246 1 16.3246V5.39833C1 4.8872 1.28647 4.14643 1.70615 3.80383C2.67231 3.01769 3.89118 2.45184 5.14929 2.04451C5.62097 1.89173 6.0972 1.7621 6.56888 1.65098C7.06063 1.53422 7.54599 1.43894 8.0131 1.36014C8.43187 1.28977 8.83603 1.23329 9.21465 1.18801C9.68541 1.1306 10.1179 1.09171 10.4947 1.06393C10.949 1.03059 11.3221 1.01485 11.5831 1.00652C11.8431 0.999111 11.9918 1.00004 12 1.00004C12.0109 1.00004 12.2792 0.999111 12.729 1.01856C12.9954 1.02967 13.3238 1.04809 13.7015 1.07865C14.0208 1.10458 14.3757 1.13884 14.7552 1.1843C15.0454 1.21856 15.3501 1.2593 15.6648 1.30838C15.9842 1.35746 16.3153 1.41487 16.652 1.48153C16.9312 1.53709 17.2149 1.5982 17.5005 1.66765C17.8052 1.73988 18.1126 1.82136 18.4183 1.91118C18.681 1.98803 18.9429 2.07229 19.202 2.16304C19.4857 2.26211 19.7658 2.36953 20.0404 2.48712C20.086 2.50564 20.1316 2.52509 20.1763 2.54648L20.1827 2.55286C20.6425 2.74741 21.0795 2.97603 21.4928 3.23529C21.7063 3.3678 21.9125 3.50845 22.1086 3.65846C22.1716 3.70568 22.2336 3.75475 22.2939 3.80383C22.4362 3.91957 22.563 4.08162 22.6679 4.26486C22.8038 4.4983 22.9042 4.76673 22.9562 5.01952C22.9854 5.15295 23 5.28166 23 5.39833Z" fill="#F4F4F4"/>
<path d="M18.5979 12.0143C18.5938 11.8199 18.5808 11.6257 18.5599 11.4334C18.3804 9.78489 17.5994 8.2477 16.3709 7.14347C15.7454 6.58107 15.0036 6.13056 14.1658 5.83552C11.8226 5.00957 9.32601 5.60754 7.59584 7.17612C7.00743 7.70967 6.50778 8.35579 6.13255 9.09578L6.12947 9.09471C6.12697 9.10182 6.12496 9.10884 6.12236 9.11605C5.98681 9.38624 5.86682 9.66861 5.76547 9.96345C5.59909 10.4494 5.49111 10.9422 5.43865 11.4334C5.41761 11.6275 5.40532 11.8209 5.40119 12.0139C5.39187 12.4482 5.4253 12.8791 5.49783 13.3008L5.51628 13.4048C5.94493 15.6808 7.52638 17.6722 9.83421 18.4858C10.5285 18.7303 11.2362 18.8504 11.9332 18.8568C11.9556 18.8572 11.9779 18.8572 11.9998 18.8572C14.7306 18.8545 17.2886 17.1191 18.2338 14.3584C18.2611 14.2798 18.2862 14.2009 18.3098 14.1216C18.3215 14.0836 18.3326 14.045 18.3434 14.0071C18.3459 13.9992 18.3481 13.9919 18.3494 13.9846C18.5325 13.3296 18.6127 12.6666 18.5979 12.0143ZM13.1532 6.01886C13.4442 6.07462 13.7347 6.15357 14.0224 6.25484C14.5965 6.45748 15.1223 6.7378 15.5921 7.08118C15.5986 7.08596 15.6049 7.09064 15.6116 7.09522C15.5952 7.11345 15.5787 7.13206 15.5623 7.15039C15.5187 7.123 15.4744 7.0958 15.4296 7.06968C14.8123 6.70563 14.096 6.4564 13.5671 6.30455C13.138 6.18164 12.8317 6.12169 12.8012 6.11575L12.8005 6.12199L12.4852 5.92773C12.708 5.94547 12.9302 5.97568 13.1532 6.01886ZM12.7529 6.37784C12.7639 6.37979 13.3712 6.49822 14.0929 6.75417C14.3145 6.83244 14.5469 6.92416 14.7761 7.02952C15.0875 7.17232 15.3929 7.34035 15.6565 7.53539C15.9478 7.86074 16.4006 8.41622 16.5019 8.83222C16.2588 9.01225 15.9689 9.2219 15.6975 9.41333C15.4987 9.55301 15.309 9.68391 15.1544 9.78489C14.7431 9.53264 13.317 8.95386 12.7839 8.93193C12.48 8.16066 11.9369 7.31491 11.699 6.96081C11.6964 6.9571 11.6938 6.9535 11.6912 6.94979C11.9409 6.76139 12.7529 6.37784 12.7529 6.37784ZM15.1237 11.7365C15.1237 11.7365 14.8755 10.2605 14.7908 10.2175C14.1753 9.90468 13.0621 9.47874 12.8663 9.63089C12.077 10.2456 12.1301 10.3525 11.9226 10.4672C11.9226 10.4672 12.7906 9.2377 12.9864 9.2799C13.4149 9.3723 14.837 9.93606 14.9488 10.1162C15.0608 10.297 15.1237 11.7365 15.1237 11.7365ZM11.4551 7.07192C11.6737 7.39562 12.2554 8.29068 12.5545 9.06898C12.2687 9.4763 11.3479 10.795 11.0985 11.2117C10.2429 11.2654 8.82637 11.3056 8.46285 11.3154C8.2588 11.0214 7.80056 10.3352 7.64791 9.91209C8.08012 8.61428 8.93694 7.61132 9.19594 7.32768C9.67742 7.20468 10.7824 6.95593 11.4551 7.07192ZM8.03852 11.3301C7.97396 11.1463 7.33473 10.2067 7.26556 10.2059C7.19639 10.2051 6.65208 10.477 6.65208 10.477C6.65208 10.477 7.32685 9.89279 7.38786 9.9846C7.44895 10.0765 8.22249 11.2654 8.2075 11.3776C8.19213 11.4897 8.02805 12.1721 8.02805 12.1721C8.02805 12.1721 8.0732 11.429 8.03852 11.3301ZM8.37504 7.10838C8.52308 6.99882 8.67621 6.89667 8.8329 6.80125L8.89054 7.06968L8.92483 7.23236C8.59965 7.60011 7.86723 8.51252 7.44213 9.70223C7.18506 9.83879 6.68926 10.1267 6.37454 10.4646C6.31651 10.3225 6.2631 10.1313 6.25695 9.89649C6.69838 8.74157 7.44732 7.79086 8.37504 7.10838ZM6.19211 13.1949C6.15195 13.3353 6.09594 13.5432 6.04618 13.7643C5.99988 13.5892 5.96135 13.4117 5.93061 13.233C5.86106 12.8325 5.82974 12.423 5.83906 12.0101C5.84358 11.8182 5.85703 11.6256 5.87912 11.4334C5.91812 11.096 5.98451 10.7588 6.08077 10.4233C6.12169 10.5529 6.17107 10.6595 6.21574 10.7408C6.18702 10.8781 6.14014 11.129 6.1069 11.4334C6.08739 11.6108 6.07298 11.8062 6.06885 12.0081C6.06213 12.3876 6.09518 12.7892 6.20969 13.1356C6.2045 13.1539 6.19816 13.1735 6.19211 13.1949ZM7.54348 16.477C6.95546 15.8498 6.50365 15.1066 6.21276 14.3002C6.24821 14.0382 6.32929 13.6882 6.41066 13.3904C6.62547 13.5036 7.0741 13.7175 7.51562 13.7889C7.50688 13.774 7.50122 13.7635 7.49872 13.7593L7.66472 13.8071L7.70728 13.5564C7.70834 13.558 7.71708 13.5737 7.73254 13.6012C7.7849 13.4447 7.8631 13.2133 7.95091 12.9599C8.0635 12.6366 8.19261 12.2773 8.30607 11.99C8.37245 11.822 8.43422 11.679 8.48341 11.5816C8.86393 11.571 10.2308 11.5316 11.0846 11.4794C11.1473 11.6004 11.2666 11.772 11.4157 11.9647C11.5651 12.1583 11.7445 12.3738 11.9269 12.5813C11.929 12.5832 11.9311 12.586 11.9333 12.5881C11.9553 12.6131 11.9773 12.6381 11.9999 12.6631C12.3088 13.0098 12.6157 13.3228 12.7875 13.4573C12.6656 13.7597 12.3085 14.6435 11.9999 15.3986C11.9773 15.4539 11.9549 15.5088 11.9333 15.562C11.8803 15.691 11.8299 15.8133 11.783 15.9269C11.537 16.0093 10.8301 16.1903 9.58184 16.094C8.89457 15.6104 7.90335 13.901 7.73254 13.6012C7.69047 13.7289 7.66472 13.8071 7.66472 13.8071C7.61534 13.803 7.56568 13.7967 7.51562 13.7889C7.65819 14.036 8.59244 15.6371 9.33197 16.2355C9.32793 16.4196 9.32178 16.7289 9.32178 17.0021C9.32178 17.1407 9.32313 17.2702 9.32726 17.3686C8.88545 17.3628 8.44844 17.1935 8.17503 17.0628C7.94995 16.8817 7.73927 16.6856 7.54348 16.477ZM9.97754 18.0665C9.62084 17.9408 9.28211 17.7845 8.96413 17.6018C9.15367 17.6341 9.35205 17.6461 9.54994 17.6255C9.96322 17.78 10.9036 18.1233 11.4088 18.222C11.4512 18.2785 11.5194 18.3424 11.6283 18.4018C11.078 18.3683 10.5234 18.2589 9.97754 18.0665ZM10.386 16.4095C10.4596 16.42 11.6541 16.2458 11.7519 16.3428C11.8498 16.4402 12.547 17.1087 12.547 17.1087C12.547 17.1087 11.8435 16.571 11.6434 16.5239C11.4435 16.477 10.386 16.4095 10.386 16.4095ZM12.7802 18.361C12.425 18.3518 12.1755 18.3115 11.9999 18.2622C11.9764 18.2554 11.9542 18.2486 11.9333 18.2416C11.8669 18.2193 11.8137 18.1963 11.7702 18.1735C11.8176 18.1524 11.8726 18.1275 11.9333 18.0994C11.9549 18.09 11.977 18.0796 11.9999 18.0691C12.331 17.9165 12.7911 17.6936 13.0648 17.5179C13.3312 17.4992 14.9261 17.3564 16.0681 16.5333L16.2809 16.6565C15.3266 17.589 14.0946 18.189 12.7802 18.361ZM16.1492 16.1302C15.1845 16.9729 13.6487 17.1919 13.1661 17.2408C12.9925 17.12 12.6656 16.8766 12.3711 16.5679C12.2341 16.4243 12.1038 16.2668 11.9999 16.1009C11.999 16.0994 11.9984 16.0985 11.9974 16.0968C11.9984 16.0946 11.9991 16.0927 11.9999 16.0906C12.3608 15.2181 12.9637 13.7221 13.0619 13.4802C13.508 13.367 14.7071 13.0542 15.1829 12.8434C15.2884 12.9347 15.4183 13.0492 15.5602 13.1766C15.9832 13.5573 16.5104 14.052 16.7995 14.3895C16.7106 15.0497 16.3718 15.736 16.1492 16.1302ZM17.8007 12.9951C17.7791 13.1862 17.7502 13.3815 17.7129 13.5788C17.7129 13.5788 17.1429 14.0375 16.9379 14.1475C16.5894 13.7538 16.0315 13.2413 15.6532 12.9045C15.5422 12.8058 15.4472 12.7219 15.3768 12.6608C15.3763 12.6284 15.3763 12.5841 15.3753 12.5289C15.3736 12.3977 15.3711 12.2072 15.3674 11.9876C15.3644 11.8162 15.3613 11.6261 15.3567 11.4333C15.3433 10.8712 15.3229 10.2798 15.2914 10.0112C15.4353 9.91735 15.6007 9.80477 15.7689 9.68752C16.0967 9.45807 16.4334 9.21177 16.6365 9.06205C16.896 9.33429 17.6973 10.299 17.6973 10.299C17.6993 10.3079 17.7969 10.7565 17.8372 11.4333C17.8478 11.6107 17.8546 11.803 17.8546 12.008C17.8547 12.3145 17.8397 12.648 17.8007 12.9951ZM18.0809 13.1735C18.0588 13.3096 18.0325 13.4453 18.0012 13.5812C17.9954 13.5693 17.9903 13.5584 17.9852 13.5478C18.0093 13.4123 18.03 13.2785 18.0469 13.1466C18.0987 12.744 18.1182 12.3596 18.1188 12.0101C18.1193 11.8047 18.1126 11.6119 18.1023 11.4334C18.0972 11.3432 18.091 11.2567 18.0839 11.1747C18.0972 11.2608 18.1091 11.3469 18.1193 11.4334C18.1415 11.6241 18.1554 11.8167 18.1599 12.0109C18.1698 12.3955 18.144 12.7846 18.0809 13.1735Z" fill="#B4B4B4"/>
</svg>

<svg width="24" height="27" fill="none" xmlns="http://www.w3.org/2000/svg"><path d="M0 0h24v27H0z"/><path d="M11.805 26.93a41.846 41.846 0 0 1-1.513-.588 29.959 29.959 0 0 1-.86-.373 28.455 28.455 0 0 1-2.282-1.14 25.391 25.391 0 0 1-1.457-.883 20.475 20.475 0 0 1-1.366-.983A16.585 16.585 0 0 1 3.06 21.86a13.383 13.383 0 0 1-1.139-1.244 11.69 11.69 0 0 1-.54-.732 9.184 9.184 0 0 1-.869-1.564 7.582 7.582 0 0 1-.314-.857C.017 16.842 0 16.457 0 16.415v-11.3c0-.642.332-1.594.946-2.093.962-.778 2.228-1.423 3.762-1.916.475-.153.986-.294 1.52-.419A24.063 24.063 0 0 1 7.763.38 28.4 28.4 0 0 1 11.979 0h.03a26.72 26.72 0 0 1 1.805.083 29.849 29.849 0 0 1 2.08.242 25.107 25.107 0 0 1 1.955.38 19.423 19.423 0 0 1 1.82.527 14.37 14.37 0 0 1 1.07.42l.067.031a10.212 10.212 0 0 1 2.041 1.178 6.8 6.8 0 0 1 .206.16c.197.16.374.374.525.636.166.284.297.623.364.95.038.17.058.344.058.509v11.298c-.002.06-.025.6-.331 1.448-.338.936-.881 1.871-1.614 2.78a14.523 14.523 0 0 1-1.958 1.976c-.96.806-2.086 1.568-3.348 2.267-.753.415-1.559.812-2.397 1.179a35.42 35.42 0 0 1-2.159.864L12 27l-.194-.07z" fill="#C4C4C4"/><path d="M23 5.398v10.927s-.013.466-.286 1.227c-.237.66-.67 1.542-1.463 2.532a13.416 13.416 0 0 1-1.81 1.837c-.834.705-1.864 1.427-3.135 2.134-.681.38-1.433.755-2.26 1.12a33.29 33.29 0 0 1-2.048.825 39.225 39.225 0 0 1-1.434-.561 28.792 28.792 0 0 1-.81-.353 27.103 27.103 0 0 1-2.155-1.082 23.925 23.925 0 0 1-1.368-.835 19.527 19.527 0 0 1-1.278-.925 15.29 15.29 0 0 1-1.174-1.03 12.28 12.28 0 0 1-1.051-1.156c-.183-.23-.348-.455-.495-.673a8.313 8.313 0 0 1-.786-1.424 6.782 6.782 0 0 1-.278-.765c-.16-.547-.169-.871-.169-.871V5.398c0-.51.286-1.252.706-1.594.966-.786 2.185-1.352 3.443-1.76a18.32 18.32 0 0 1 1.42-.393c.492-.117.977-.212 1.444-.29a26.909 26.909 0 0 1 3.57-.354C11.843.999 11.992 1 12 1a25.032 25.032 0 0 1 1.701.079 27.79 27.79 0 0 1 1.964.23 23.37 23.37 0 0 1 1.835.359 17.951 17.951 0 0 1 1.702.495 13.106 13.106 0 0 1 .974.383l.007.007a9.236 9.236 0 0 1 1.926 1.105c.063.048.125.097.185.146.142.116.269.278.374.46.136.234.236.503.288.756.03.133.044.262.044.378z" fill="#F4F4F4"/><path d="M18.598 12.014a6.764 6.764 0 0 0-2.227-4.87 6.54 6.54 0 0 0-2.205-1.308c-2.343-.826-4.84-.228-6.57 1.34a6.645 6.645 0 0 0-1.463 1.92l-.004-.001-.007.021a6.748 6.748 0 0 0-.625 4.185l.02.104c.428 2.276 2.01 4.267 4.317 5.08a6.49 6.49 0 0 0 2.166.372c2.73-.002 5.289-1.738 6.234-4.499a5.518 5.518 0 0 0 .115-.373 6.743 6.743 0 0 0 .249-1.97zM13.153 6.02a6.09 6.09 0 0 1 2.439 1.062l.02.014-.05.055a4.706 4.706 0 0 0-.132-.08c-.618-.364-1.334-.614-1.863-.765a9.644 9.644 0 0 0-.766-.19v.007l-.316-.194c.223.017.445.048.668.09zm-.4.359c.01.002.618.12 1.34.376.222.078.454.17.683.276.312.142.617.31.88.505.292.326.745.881.846 1.297-.243.18-.533.39-.804.581-.2.14-.389.27-.544.372-.41-.252-1.837-.831-2.37-.853-.304-.771-.847-1.617-1.085-1.971l-.008-.011c.25-.189 1.062-.572 1.062-.572zm2.37 5.358s-.247-1.476-.332-1.519c-.616-.312-1.729-.738-1.925-.586-.789.615-.736.721-.943.836 0 0 .868-1.23 1.063-1.187.429.092 1.851.656 1.963.836.112.181.175 1.62.175 1.62zm-3.668-4.664c.219.324.8 1.219 1.1 1.997-.286.407-1.207 1.726-1.457 2.143-.855.053-2.272.094-2.635.103-.204-.294-.662-.98-.815-1.403.432-1.298 1.289-2.3 1.548-2.584.481-.123 1.586-.372 2.26-.256zM8.04 11.33c-.065-.184-.704-1.123-.773-1.124-.07 0-.614.271-.614.271s.675-.584.736-.492c.061.091.834 1.28.82 1.393-.016.112-.18.794-.18.794s.045-.743.01-.842zm.336-4.222c.148-.11.301-.211.458-.307l.058.269.034.162c-.325.368-1.058 1.28-1.483 2.47-.257.137-.753.425-1.067.763a1.608 1.608 0 0 1-.118-.569 6.197 6.197 0 0 1 2.118-2.788zm-2.183 6.087c-.04.14-.096.348-.146.57a6.314 6.314 0 0 1 .035-3.341c.04.129.09.236.135.317a7.394 7.394 0 0 0-.147 1.267c-.007.38.026.781.14 1.128a.612.612 0 0 1-.017.059zm1.351 3.282a6.318 6.318 0 0 1-1.33-2.177c.035-.262.116-.612.198-.91.214.114.663.327 1.105.399a.18.18 0 0 1-.017-.03l.166.048.042-.25.026.044a52.9 52.9 0 0 1 .218-.641c.112-.323.242-.683.355-.97.066-.168.128-.311.177-.408.38-.011 1.748-.05 2.602-.103.062.121.182.293.33.486.15.193.33.409.512.616l.006.007.067.075c.309.347.616.66.787.794a504.013 504.013 0 0 1-1.004 2.47c-.246.082-.953.263-2.201.167-.687-.484-1.679-2.193-1.85-2.493l-.067.206a2.095 2.095 0 0 1-.15-.018c.143.247 1.077 1.848 1.817 2.446-.004.185-.01.494-.01.767 0 .139.001.268.005.367-.442-.006-.879-.175-1.152-.306a6.178 6.178 0 0 1-.632-.586zm2.435 1.59a6.11 6.11 0 0 1-1.014-.465c.19.032.388.044.586.023.413.155 1.354.498 1.859.597.042.056.11.12.22.18a6.068 6.068 0 0 1-1.651-.335zm.408-1.657c.074.01 1.268-.164 1.366-.067.098.097.795.766.795.766s-.704-.538-.904-.585c-.2-.047-1.257-.114-1.257-.114zm2.394 1.951a3.23 3.23 0 0 1-.78-.099 1.114 1.114 0 0 1-.23-.089c.048-.02.103-.046.163-.074l.067-.03c.331-.152.791-.375 1.065-.551.266-.019 1.861-.162 3.003-.985l.213.123a6.164 6.164 0 0 1-3.5 1.705zm3.37-2.23c-.965.842-2.501 1.06-2.984 1.11a5.42 5.42 0 0 1-.795-.673A2.989 2.989 0 0 1 12 16.1l-.003-.004.003-.006c.36-.873.964-2.369 1.062-2.61.446-.114 1.645-.427 2.12-.638.106.092.236.206.378.334.423.38.95.875 1.24 1.213-.09.66-.428 1.346-.65 1.74zm1.65-3.136c-.02.191-.05.387-.087.584 0 0-.57.458-.775.569-.349-.394-.906-.907-1.285-1.243a33.04 33.04 0 0 0-.276-.244c0-.033 0-.077-.002-.132a135.57 135.57 0 0 0-.008-.541l-.01-.555c-.014-.562-.034-1.153-.066-1.422.144-.094.31-.206.478-.323.328-.23.664-.476.868-.626.259.272 1.06 1.237 1.06 1.237.002.009.1.458.14 1.134a8.843 8.843 0 0 1-.037 1.562zm.28.179a6.346 6.346 0 0 1-.079.407c-.006-.012-.01-.023-.016-.033a9.05 9.05 0 0 0 .117-2.114 8.697 8.697 0 0 0-.018-.26 6.244 6.244 0 0 1-.003 1.999z" fill="#B4B4B4"/></svg>
